X: 3576
T:Market Town, The
R:jig
D:Session tape - Bangor, Down 198 (Nigel and Dianna Boullier)
Z:Bernie Stocks
M:6/8
L:1/8
K:A
EFE ECE|FAA A2f|edc Bcd|cBA F3|!
EFE ECE|FAA A2f|edc BAB|cAA A3:|!
|:efe ece|f2g agf|edc Bcd|cBA F3|!
efe ece|f2g agf|edc BAB|cAG A3:|!
